icons/lines/decred--dcr-.svg

<svg xmlns="http://www.w3.org/2000/svg" width="24" height="24" viewBox="0 0 24 24" fill="none" stroke="currentColor" stroke-width="2" stroke-linecap="round" stroke-linejoin="round">
  <path d="M18.3 16.3 22 20h-5l-6-6h4.5c1.9 0 3.5-1.6 3.5-3.5S17.4 7 15.5 7H14l-3-3h4.5a6.487 6.487 0 0 1 3 12.3z" />
  <path d="M5.7 7.7 2 4h5l6 6H8.5C6.6 10 5 11.6 5 13.5S6.6 17 8.5 17H10l3 3H8.5a6.487 6.487 0 0 1-3-12.3z" />
</svg>

<svg xmlns="http://www.w3.org/2000/svg" width="24" height="24" viewBox="0 0 24 24" fill="none" stroke="currentColor" stroke-width="2" stroke-linecap="round" stroke-linejoin="round" >
  <path d="M5.7 7.7L2 4H7L13 10H8.5C6.6 10 5 11.6 5 13.5C5 15.4 6.6 17 8.5 17H10L13 20H8.5C4.9 20 2 17.1 2 13.5C2 11 3.4 8.8 5.5 7.7H5.7Z" stroke-miterlimit="10"/>
  <path d="M18.3 16.3L22 20H17L11 14H15.5C17.4 14 19 12.4 19 10.5C19 8.6 17.4 7 15.5 7H14L11 4H15.5C19.1 4 22 6.9 22 10.5C22 13 20.6 15.2 18.5 16.3H18.3Z" stroke-miterlimit="10"/>
  </svg>
